public/icons/VIM-Dark.svg

<svg xmlns="http://www.w3.org/2000/svg" width="256" height="256" fill="none" viewBox="0 0 256 256"><rect width="256" height="256" fill="#242938" rx="60"/><path fill="#019833" d="M135.498 39.4619C128.076 32.03 116.032 32.03 108.61 39.462L33.4081 114.765C26.0001 122.183 26.0001 134.199 33.4081 141.617L108.186 216.495C115.608 223.927 127.652 223.927 135.074 216.495L210.276 141.191C217.684 133.773 217.684 121.757 210.276 114.339L135.498 39.4619Z"/><path fill="#fff" d="M161.769 40.7104L159.083 43.3988V53.2693L161.435 55.6235H173.86V65.1606L91.672 148.576V55.7425H105.331L108.133 52.9365V42.9482L105.546 40.9465H33.6672L31.3158 43.3007V53.5048L33.7069 55.8988H46.2085V216.316C46.2085 222.361 50.6553 227.485 56.6396 228.335V228.335C60.4891 228.883 64.3678 227.553 67.0718 224.759L235 51.2474V43.4001L232.315 40.7117L161.769 40.7104Z"/></svg>

<svg xmlns="http://www.w3.org/2000/svg" width="256" height="256" fill="none"><rect width="256" height="256" fill="#242938" rx="60"/><path fill="#019833" d="M135.498 39.462c-7.422-7.432-19.466-7.432-26.888 0l-75.202 75.303c-7.408 7.418-7.408 19.434 0 26.852l74.778 74.878c7.422 7.432 19.466 7.432 26.888 0l75.202-75.304c7.408-7.418 7.408-19.434 0-26.852z"/><path fill="#fff" d="m161.769 40.71-2.686 2.689v9.87l2.352 2.355h12.425v9.537l-82.188 83.415V55.743h13.659l2.802-2.806v-9.989l-2.587-2.001H33.667L31.316 43.3v10.204l2.39 2.394h12.502v160.417a12.14 12.14 0 0 0 10.432 12.019c3.85.548 7.728-.782 10.432-3.576L235 51.247V43.4l-2.685-2.688z"/></svg>
